frontend/assets/images/logo-pulilab.svg

<?xml version="1.0" encoding="UTF-8"?>
<svg width="36px" height="36px" viewBox="0 0 36 36" version="1.1" xmlns="http://www.w3.org/2000/svg" xmlns:xlink="http://www.w3.org/1999/xlink">
    <!-- Generator: Sketch 49.3 (51167) - http://www.bohemiancoding.com/sketch -->
    <title>pulilab logo</title>
    <desc>Created with Sketch.</desc>
    <defs></defs>
    <g id="VuePeople-app-v1" stroke="none" stroke-width="1" fill="none" fill-rule="evenodd">
        <g id="Map---component-(light-aside)" transform="translate(-54.000000, -690.000000)">
            <g id="Google-map" transform="translate(30.000000, 30.000000)">
                <g id="Drawer">
                    <g id="Credits" transform="translate(24.000000, 660.000000)">
                        <g id="pulilab-logo">
                            <path d="M36,18.0010719 C36,16.7102025 34.953208,15.6644303 33.6627599,15.6644303 L26.7189203,15.6644303 L32.7327941,12.1926955 C33.850325,11.5470822 34.2340297,10.1183009 33.5888056,9.00107185 C32.9428671,7.88277094 31.5137994,7.50011909 30.3959113,8.14501786 L24.3827519,11.6167527 L27.8543145,5.60329496 C28.4998958,4.48499405 28.1169057,3.05621278 27.0004466,2.41059944 C25.883273,1.76605796 24.4531335,2.14978166 23.8079095,3.267368 L20.3345606,9.28118301 L20.3345606,2.33592696 C20.3345606,1.04612942 19.2899122,0 17.9987496,0 C16.7093733,0 15.6618667,1.04612942 15.6618667,2.33592696 L15.6618667,9.27832473 L12.1910187,3.267368 C11.5468665,2.14978166 10.116727,1.76677253 8.99955342,2.4116713 C7.88202253,3.05657007 7.4990324,4.4860659 8.1435419,5.60329496 L11.6161763,11.6178245 L5.60337419,8.14537515 C4.48512876,7.50011909 3.0564184,7.88277094 2.41012256,9.00107185 C1.76561306,10.1183009 2.14896045,11.5470822 3.26577681,12.1926955 L9.28036521,15.6644303 L2.33545378,15.6644303 C1.04464844,15.6644303 0,16.7102025 0,18.0010719 C0,19.2908694 1.04464844,20.3366415 2.33545378,20.3366415 L9.2782216,20.3366415 L3.26577681,23.8087336 C2.14896045,24.4536324 1.76561306,25.8827709 2.41012256,27.0007146 C2.84313006,27.7499405 3.62983179,28.1679635 4.43689773,28.1679635 C4.8323922,28.1679635 5.23503201,28.0682811 5.60337419,27.8549821 L11.6161763,24.3832473 L8.1435419,30.3970623 C7.4990324,31.5142914 7.88202253,32.9427154 8.99955342,33.5883287 C9.36718106,33.7998412 9.76982087,33.90131 10.1649581,33.90131 C10.9723813,33.90131 11.7587257,33.4818579 12.1910187,32.732632 L15.6618667,26.7209607 L15.6618667,33.664073 C15.6618667,34.9520842 16.7093733,36 17.9987496,36 C19.2899122,36 20.3345606,34.9520842 20.3345606,33.664073 L20.3345606,26.718817 L23.8079095,32.732632 C24.240917,33.4818579 25.0261896,33.90131 25.8328983,33.90131 C26.2305364,33.90131 26.6317471,33.7998412 27.0004466,33.5904724 C28.1169057,32.9427154 28.4998958,31.5142914 27.8543145,30.3970623 L24.3827519,24.3850337 L30.3959113,27.8567686 C30.7653253,28.0682811 31.1647497,28.1697499 31.5620305,28.1697499 C32.3705255,28.1697499 33.1557981,27.7502977 33.5888056,27.0007146 C34.2340297,25.8827709 33.850325,24.454347 32.7327941,23.8094482 L26.7189203,20.3366415 L33.6627599,20.3366415 C34.953208,20.3366415 36,19.2908694 36,18.0010719" id="Fill-1" fill-opacity="0.87" fill="#000000"></path>
                            <path d="M15.6,19.2 L15.6,22.8467095 C15.6,24.1466069 16.6745578,25.2 18.0001652,25.2 C19.3264331,25.2 20.4,24.1466069 20.4,22.8467095 L20.4,19.2 L15.6,19.2 Z" id="Fill-4" fill="#EE3A4F"></path>
                        </g>
                    </g>
                </g>
            </g>
        </g>
    </g>
</svg>

<?xml version="1.0" encoding="UTF-8"?>
<svg version="1.1" viewBox="0 0 36 36" xmlns="http://www.w3.org/2000/svg">
<title>pulilab logo</title>
<desc>Created with Sketch.</desc>
<g fill="none" fill-rule="evenodd">
<g transform="translate(-54 -690)">
<g transform="translate(30 30)">
<g transform="translate(24 660)">
<path d="m36 18.001c0-1.2909-1.0468-2.3366-2.3372-2.3366h-6.9438l6.0139-3.4717c1.1175-0.64561 1.5012-2.0744 0.85601-3.1916-0.64594-1.1183-2.075-1.501-3.1929-0.85605l-6.0132 3.4717 3.4716-6.0135c0.64558-1.1183 0.26259-2.5471-0.85387-3.1927-1.1172-0.64454-2.5473-0.26082-3.1925 0.85677l-3.4733 6.0138v-6.9453c0-1.2898-1.0446-2.3359-2.3358-2.3359-1.2894 0-2.3369 1.0461-2.3369 2.3359v6.9424l-3.4708-6.011c-0.64415-1.1176-2.0743-1.5006-3.1915-0.8557-1.1175 0.6449-1.5005 2.0744-0.85601 3.1916l3.4726 6.0145-6.0128-3.4724c-1.1182-0.64526-2.547-0.2626-3.1933 0.8557-0.64451 1.1172-0.26116 2.546 0.85565 3.1916l6.0146 3.4717h-6.9449c-1.2908 0-2.3355 1.0458-2.3355 2.3366 0 1.2898 1.0446 2.3356 2.3355 2.3356h6.9428l-6.0124 3.4721c-1.1168 0.6449-1.5002 2.074-0.85565 3.192 0.43301 0.74923 1.2197 1.1672 2.0268 1.1672 0.39549 0 0.79813-0.099682 1.1665-0.31298l6.0128-3.4717-3.4726 6.0138c-0.64451 1.1172-0.26152 2.5457 0.85601 3.1913 0.36763 0.21151 0.77027 0.31298 1.1654 0.31298 0.80742 0 1.5938-0.41945 2.0261-1.1687l3.4708-6.0117v6.9431c0 1.288 1.0475 2.3359 2.3369 2.3359 1.2912 0 2.3358-1.0479 2.3358-2.3359v-6.9453l3.4733 6.0138c0.43301 0.74923 1.2183 1.1687 2.025 1.1687 0.39764 0 0.79885-0.10147 1.1675-0.31084 1.1165-0.64776 1.4994-2.0762 0.85387-3.1934l-3.4716-6.012 6.0132 3.4717c0.36941 0.21151 0.76884 0.31298 1.1661 0.31298 0.8085 0 1.5938-0.41945 2.0268-1.169 0.64522-1.1179 0.26152-2.5464-0.85601-3.1913l-6.0139-3.4728h6.9438c1.2904 0 2.3372-1.0458 2.3372-2.3356" fill="#000" fill-opacity=".87"/>
<path d="m15.6 19.2v3.6467c0 1.2999 1.0746 2.3533 2.4002 2.3533 1.3263 0 2.3998-1.0534 2.3998-2.3533v-3.6467h-4.8z" fill="#EE3A4F"/>
</g>
</g>
</g>
</g>
</svg>
